src/assets/img/css.svg

<svg width="66" height="75" viewBox="0 0 66 75" fill="none" xmlns="http://www.w3.org/2000/svg">
<path d="M0.00585795 0.0132157C0.00585795 0.303961 -0.00732243 0.502197 0.00585795 0.700433C0.506712 6.19817 1.00757 11.6959 1.49524 17.2069C2.18062 25.0041 2.85282 32.8014 3.5382 40.5855C4.31584 49.3343 5.10666 58.0699 5.85795 66.8187C5.91067 67.453 6.13473 67.7305 6.72785 67.8891C15.1633 70.2151 23.5724 72.5543 32.0078 74.867C32.5746 75.0256 33.2599 75.052 33.8267 74.8934C42.2885 72.5675 50.7371 70.2019 59.1989 67.8627C59.8448 67.6777 60.0688 67.3869 60.1216 66.7261C60.3852 63.4222 60.7015 60.1051 60.9915 56.8011C61.4791 51.3298 61.9536 45.8585 62.4413 40.3872C63.0081 33.9644 63.588 27.5548 64.1548 21.1319C64.5765 16.3478 65.0247 11.577 65.4464 6.79288C65.6441 4.54621 65.8155 2.29953 66 0H0.00585795V0.0132157ZM53.2678 19.0967C52.8328 23.9337 52.3979 28.7838 51.9629 33.6208C51.462 39.1846 50.9612 44.7484 50.4603 50.299C50.3154 51.8981 50.1045 53.4972 50.0649 55.1095C50.0386 55.9686 49.6695 56.1932 48.9578 56.3915C43.8701 57.7659 38.7957 59.18 33.7213 60.5808C33.4972 60.6469 33.2863 60.7262 33.0622 60.7923C32.9832 60.7526 32.9041 60.7262 32.8118 60.6866C27.3815 59.2064 21.9512 57.713 16.5209 56.2064C16.2968 56.1404 16.0068 55.7835 15.9805 55.5324C15.5982 51.4091 15.2556 47.2858 14.8865 43.0832H23.177C23.3219 44.7352 23.4801 46.4136 23.6119 48.1052C23.7305 49.6647 23.7174 49.6647 25.1804 50.0611C27.8033 50.7616 30.4393 51.4488 33.0622 52.136L33.0359 52.0699C35.9092 51.3034 38.7825 50.5501 41.6558 49.7307C41.9195 49.6514 42.2226 49.2285 42.2621 48.9378C42.4335 47.6691 42.5257 46.3872 42.6312 45.1185C42.8025 43.07 42.9739 41.0216 43.1584 38.8806H33.0359L33.0622 38.8278C32.9963 38.8278 32.9173 38.8278 32.8514 38.8278H14.5043C14.2538 36.0921 14.0166 33.3829 13.7662 30.5944H32.8645C32.9304 30.5944 33.0095 30.5944 33.0754 30.5944L33.0491 30.5415H43.8965C44.1469 27.7001 44.3974 24.9248 44.6478 22.0967H33.0359L33.0622 22.0438C32.9963 22.0438 32.9173 22.0438 32.8514 22.0438C26.3534 22.057 19.8555 22.057 13.3576 22.0702C13.2653 22.0702 13.1731 22.0306 13.0017 21.9777C12.7645 19.2817 12.514 16.5857 12.2768 13.8104H32.8514C32.9173 13.8104 32.9963 13.8104 33.0622 13.8104L33.0359 13.7576H53.7027C53.5577 15.6078 53.4127 17.3522 53.2678 19.0967Z" fill="#146cad"/>
</svg>

<svg xmlns="http://www.w3.org/2000/svg" width="66" height="75" fill="none"><path fill="#146cad" d="M.006.013c0 .291-.013.49 0 .687.5 5.498 1.002 10.996 1.49 16.507.685 7.797 1.357 15.594 2.042 23.379.778 8.748 1.569 17.484 2.32 26.233.053.634.277.912.87 1.07 8.435 2.326 16.844 4.665 25.28 6.978.567.159 1.252.185 1.819.026 8.462-2.326 16.91-4.691 25.372-7.03.646-.185.87-.476.923-1.137.263-3.304.58-6.62.87-9.925.487-5.471.962-10.943 1.45-16.414.566-6.423 1.146-12.832 1.713-19.255.421-4.784.87-9.555 1.291-14.34.198-2.246.37-4.492.554-6.792H.006v.013Zm53.262 19.084L51.963 33.62 50.46 50.299c-.145 1.6-.355 3.198-.395 4.81-.026.86-.395 1.084-1.107 1.282-5.088 1.375-10.162 2.789-15.237 4.19-.224.066-.435.145-.659.211-.079-.04-.158-.066-.25-.105-5.43-1.48-10.86-2.974-16.291-4.48-.224-.067-.514-.424-.54-.675-.383-4.123-.725-8.246-1.095-12.449h8.291c.145 1.652.303 3.33.435 5.022.119 1.56.105 1.56 1.568 1.956 2.623.7 5.26 1.388 7.882 2.075l-.026-.066c2.873-.767 5.746-1.52 8.62-2.34.264-.079.567-.502.606-.792.172-1.269.264-2.55.37-3.82.17-2.048.342-4.096.526-6.237H33.036l.026-.053H14.504c-.25-2.736-.487-5.445-.738-8.234h19.309l-.026-.053h10.848c.25-2.84.5-5.616.75-8.444H33.037l.026-.053h-.21c-6.499.013-12.996.013-19.494.026-.093 0-.185-.04-.356-.092-.238-2.696-.488-5.392-.725-8.168h20.785l-.026-.052h20.667c-.145 1.85-.29 3.594-.435 5.339Z"/></svg>
